public/images/teraphone-logo-and-name-vertical.svg

<svg width="328" height="278" viewBox="0 0 328 278" fill="none" xmlns="http://www.w3.org/2000/svg">
<path fill-rule="evenodd" clip-rule="evenodd" d="M237.591 278C232.6 278 228.599 276.463 225.589 273.389C222.594 270.314 221.097 266.315 221.097 261.39C221.097 256.098 222.626 251.877 225.685 248.726C228.744 245.575 232.898 244 238.147 244C243.009 244 246.921 245.529 249.884 248.588C252.862 251.647 254.351 255.647 254.351 260.587C254.351 265.955 252.83 270.2 249.787 273.32C246.744 276.44 242.679 278 237.591 278ZM237.857 248.795C234.685 248.795 232.101 249.919 230.105 252.167C228.124 254.416 227.134 257.375 227.134 261.046C227.134 264.701 228.1 267.646 230.032 269.879C231.964 272.112 234.492 273.228 237.615 273.228C240.932 273.228 243.548 272.165 245.464 270.039C247.38 267.913 248.338 264.938 248.338 261.115C248.338 257.184 247.404 254.148 245.537 252.007C243.685 249.865 241.125 248.795 237.857 248.795ZM61.0818 277.449H41.6409V244.551H61.0818V249.185H47.3886V258.499H59.2947V263.111H47.3886V272.838H61.0818V277.449ZM100.944 277.449H94.2307L88.7003 268.64C88.2012 267.829 87.7102 267.141 87.2272 266.575C86.7603 265.994 86.2773 265.52 85.7782 265.152C85.2952 264.785 84.7638 264.518 84.1842 264.35C83.6046 264.181 82.9526 264.097 82.2281 264.097H79.9097V277.449H74.1861V244.551H85.585C87.2111 244.551 88.7084 244.734 90.0769 245.101C91.4454 245.468 92.6368 246.027 93.6511 246.776C94.6654 247.51 95.4543 248.435 96.0179 249.552C96.5975 250.653 96.8873 251.946 96.8873 253.429C96.8873 254.592 96.7021 255.662 96.3318 256.641C95.9776 257.605 95.4624 258.469 94.7862 259.233C94.1261 259.983 93.3211 260.625 92.3712 261.161C91.4374 261.696 90.3828 262.109 89.2075 262.399V262.491C89.8354 262.828 90.3828 263.202 90.8497 263.615C91.3166 264.013 91.7594 264.426 92.178 264.854C92.5966 265.283 93.0071 265.772 93.4096 266.323C93.8282 266.858 94.2871 267.485 94.7862 268.204L100.944 277.449ZM79.9097 248.978V259.669H84.6914C85.5769 259.669 86.39 259.539 87.1306 259.279C87.8873 259.019 88.5393 258.645 89.0867 258.155C89.6341 257.666 90.0608 257.069 90.3667 256.366C90.6726 255.662 90.8256 254.874 90.8256 254.003C90.8256 252.427 90.3023 251.196 89.2558 250.309C88.2093 249.422 86.7039 248.978 84.7397 248.978H79.9097ZM132.093 277.449H138.397L125.525 244.551H119.052L106.084 277.449H112.363L115.357 269.076H128.978L132.093 277.449ZM122.651 251.502L127.457 264.625H116.855L121.612 251.502C121.789 250.997 121.95 250.309 122.095 249.437H122.192C122.353 250.386 122.506 251.074 122.651 251.502ZM153.848 265.52V277.449H148.124V244.551H158.63C162.606 244.551 165.69 245.43 167.879 247.189C170.069 248.948 171.164 251.426 171.164 254.622C171.164 257.819 170.021 260.434 167.734 262.468C165.448 264.502 162.357 265.52 158.461 265.52H153.848ZM153.848 249.047V261.069H157.567C160.03 261.069 161.906 260.526 163.194 259.44C164.482 258.354 165.126 256.825 165.126 254.852C165.126 250.982 162.759 249.047 158.026 249.047H153.848ZM204.051 277.449H209.823V244.551H204.051V258.385H187.75V244.551H182.002V277.449H187.75V263.179H204.051V277.449ZM288.737 277.449H295.016V244.551H289.485V265.749C289.485 267.829 289.566 269.305 289.727 270.177H289.63C289.437 269.81 289.002 269.137 288.326 268.158L272.339 244.551H265.649V277.449H271.203V255.884C271.203 253.574 271.139 252.068 271.01 251.364H271.155C271.429 252.022 271.775 252.657 272.194 253.269L288.737 277.449ZM328 277.449H308.559V244.551H328V249.185H314.307V258.499H326.213V263.111H314.307V272.838H328V277.449ZM18.6701 249.55H29C30.3807 249.55 31.5 248.431 31.5 247.05V244.55H2.5C1.11929 244.55 0 245.669 0 247.05V249.55H12.9301V277.45H18.6701V249.55Z" fill="url(#paint0_linear_51_29)"/>
<path fill-rule="evenodd" clip-rule="evenodd" d="M260 0H88C76.9543 0 68 8.95431 68 20V52H122V36H206V52H240C251.046 52 260 43.0457 260 32V0ZM190 52V172C190 183.046 181.046 192 170 192H138V72C138 60.9543 146.954 52 158 52H190Z" fill="url(#paint1_linear_51_29)"/>
<defs>
<linearGradient id="paint0_linear_51_29" x1="164" y1="225" x2="161.488" y2="284.569" gradientUnits="userSpaceOnUse">
<stop stop-color="#0088EE"/>
<stop offset="1" stop-color="#0077CC"/>
</linearGradient>
<linearGradient id="paint1_linear_51_29" x1="190" y1="-8" x2="138" y2="192" gradientUnits="userSpaceOnUse">
<stop stop-color="#33AAFF"/>
<stop offset="1" stop-color="#0077CC"/>
</linearGradient>
</defs>
</svg>

<svg width="328" height="278" viewBox="0 0 328 278" fill="none" xmlns="http://www.w3.org/2000/svg"><path fill-rule="evenodd" clip-rule="evenodd" d="M237.591 278c-4.991 0-8.992-1.537-12.002-4.611-2.995-3.075-4.492-7.074-4.492-11.999 0-5.292 1.529-9.513 4.588-12.664S232.898 244 238.147 244c4.862 0 8.774 1.529 11.737 4.588 2.978 3.059 4.467 7.059 4.467 11.999 0 5.368-1.521 9.613-4.564 12.733-3.043 3.12-7.108 4.68-12.196 4.68Zm.266-29.205c-3.172 0-5.756 1.124-7.752 3.372-1.981 2.249-2.971 5.208-2.971 8.879 0 3.655.966 6.6 2.898 8.833 1.932 2.233 4.46 3.349 7.583 3.349 3.317 0 5.933-1.063 7.849-3.189 1.916-2.126 2.874-5.101 2.874-8.924 0-3.931-.934-6.967-2.801-9.108-1.852-2.142-4.412-3.212-7.68-3.212ZM61.082 277.449H41.64v-32.898h19.44v4.634H47.39v9.314h11.906v4.612H47.389v9.727h13.693v4.611Zm39.862 0h-6.713l-5.53-8.809c-.5-.811-.99-1.499-1.474-2.065a7.893 7.893 0 0 0-1.449-1.423 4.84 4.84 0 0 0-1.594-.802c-.58-.169-1.231-.253-1.956-.253H79.91v13.352h-5.724v-32.898h11.399c1.626 0 3.123.183 4.492.55 1.368.367 2.56.926 3.574 1.675a7.611 7.611 0 0 1 2.367 2.776c.58 1.101.87 2.394.87 3.877 0 1.163-.186 2.233-.556 3.212a8.081 8.081 0 0 1-1.546 2.592 9.206 9.206 0 0 1-2.415 1.928c-.934.535-1.988.948-3.163 1.238v.092a8.61 8.61 0 0 1 1.642 1.124c.467.398.91.811 1.328 1.239.419.429.83.918 1.232 1.469.418.535.877 1.162 1.376 1.881l6.158 9.245ZM79.91 248.978v10.691h4.781c.886 0 1.699-.13 2.44-.39a5.64 5.64 0 0 0 1.956-1.124 5.085 5.085 0 0 0 1.28-1.789c.306-.704.459-1.492.459-2.363 0-1.576-.524-2.807-1.57-3.694-1.047-.887-2.552-1.331-4.516-1.331h-4.83Zm52.183 28.471h6.304l-12.872-32.898h-6.473l-12.968 32.898h6.279l2.994-8.373h13.621l3.115 8.373Zm-9.442-25.947 4.806 13.123h-10.602l4.757-13.123c.177-.505.338-1.193.483-2.065h.097c.161.949.314 1.637.459 2.065Zm31.197 14.018v11.929h-5.724v-32.898h10.506c3.976 0 7.06.879 9.249 2.638 2.19 1.759 3.285 4.237 3.285 7.433 0 3.197-1.143 5.812-3.43 7.846-2.286 2.034-5.377 3.052-9.273 3.052h-4.613Zm0-16.473v12.022h3.719c2.463 0 4.339-.543 5.627-1.629 1.288-1.086 1.932-2.615 1.932-4.588 0-3.87-2.367-5.805-7.1-5.805h-4.178Zm50.203 28.402h5.772v-32.898h-5.772v13.834H187.75v-13.834h-5.748v32.898h5.748v-14.27h16.301v14.27Zm84.686 0h6.279v-32.898h-5.531v21.198c0 2.08.081 3.556.242 4.428h-.097c-.193-.367-.628-1.04-1.304-2.019l-15.987-23.607h-6.69v32.898h5.554v-21.565c0-2.31-.064-3.816-.193-4.52h.145c.274.658.62 1.293 1.039 1.905l16.543 24.18Zm39.263 0h-19.441v-32.898H328v4.634h-13.693v9.314h11.906v4.612h-11.906v9.727H328v4.611ZM18.67 249.55H29a2.5 2.5 0 0 0 2.5-2.5v-2.5h-29a2.5 2.5 0 0 0-2.5 2.5v2.5h12.93v27.9h5.74v-27.9Z" fill="url(#a)"/><path fill-rule="evenodd" clip-rule="evenodd" d="M260 0H88C76.954 0 68 8.954 68 20v32h54V36h84v16h34c11.046 0 20-8.954 20-20V0Zm-70 52v120c0 11.046-8.954 20-20 20h-32V72c0-11.046 8.954-20 20-20h32Z" fill="url(#b)"/><defs><linearGradient id="a" x1="164" y1="225" x2="161.488" y2="284.569" gradientUnits="userSpaceOnUse"><stop stop-color="#08E"/><stop offset="1" stop-color="#07C"/></linearGradient><linearGradient id="b" x1="190" y1="-8" x2="138" y2="192" gradientUnits="userSpaceOnUse"><stop stop-color="#3AF"/><stop offset="1" stop-color="#07C"/></linearGradient></defs></svg>
